tipitek/img/icon-arrow.svg

<svg width="16" height="17" viewBox="0 0 16 17" fill="none" xmlns="http://www.w3.org/2000/svg">
<path d="M11.2261 4.36425C11.4792 4.36425 11.6884 4.55235 11.7215 4.7964L11.7261 4.86425L11.726 12.7309L13.5902 10.8593C13.785 10.6636 14.1015 10.6628 14.2973 10.8577C14.4752 11.0348 14.492 11.3125 14.3472 11.5086L14.2989 11.5648L11.5804 14.2959C11.564 14.312 11.5473 14.3266 11.5297 14.34L11.5804 14.2959C11.5558 14.3205 11.5294 14.3421 11.5015 14.3605C11.4918 14.3666 11.4816 14.3728 11.4713 14.3786C11.4617 14.3844 11.4519 14.3895 11.442 14.3942C11.4323 14.3985 11.4224 14.4029 11.4123 14.4069C11.3995 14.4124 11.3864 14.417 11.3731 14.4211C11.3653 14.4232 11.3573 14.4254 11.3492 14.4275C11.3348 14.4314 11.3204 14.4344 11.3058 14.4368C11.299 14.4375 11.2919 14.4385 11.2847 14.4394C11.2682 14.4416 11.252 14.4427 11.2357 14.443C11.2325 14.4427 11.2293 14.4428 11.2261 14.4428L11.2163 14.443C11.2 14.4427 11.1838 14.4416 11.1676 14.4397L11.2261 14.4428C11.1988 14.4428 11.1721 14.4406 11.1461 14.4364C11.1316 14.4344 11.1172 14.4314 11.1028 14.4278C11.0952 14.4255 11.0876 14.4234 11.0801 14.4211C11.0658 14.4171 11.0515 14.4121 11.0375 14.4064C11.0298 14.4029 11.0224 14.3996 11.0151 14.3962C11.0036 14.3913 10.992 14.3854 10.9807 14.379C10.9705 14.3727 10.9604 14.3666 10.9505 14.3601C10.9428 14.3554 10.9352 14.3501 10.9278 14.3446L10.9224 14.34C10.9048 14.3266 10.8882 14.312 10.8725 14.2963L10.8716 14.2959L8.15312 11.5648C7.95831 11.369 7.95904 11.0525 8.15475 10.8577C8.33267 10.6806 8.61048 10.6651 8.80589 10.8107L8.86186 10.8593L10.726 12.7323L10.7261 4.86425C10.7261 4.5881 10.9499 4.36425 11.2261 4.36425ZM4.60712 2.55521L4.61686 2.55493C4.63315 2.55524 4.64943 2.55635 4.66564 2.55825L4.60712 2.55521C4.63435 2.55521 4.66108 2.55739 4.68714 2.56158C4.70139 2.56353 4.7157 2.56647 4.72988 2.57004C4.73821 2.57249 4.74671 2.57488 4.75512 2.57748C4.76825 2.58118 4.78095 2.58568 4.7935 2.5907C4.80257 2.59474 4.81175 2.59876 4.82078 2.60303C4.83152 2.60767 4.84209 2.61314 4.8525 2.619C4.86141 2.62449 4.87024 2.62984 4.87888 2.63544C4.88776 2.64073 4.89667 2.64691 4.9054 2.65342L4.96156 2.7021L7.68008 5.43321C7.87489 5.62893 7.87416 5.94551 7.67844 6.14032C7.50052 6.31742 7.22271 6.33292 7.02731 6.18723L6.97134 6.13869L5.10667 4.26493L5.10712 12.1337C5.10712 12.4099 4.88326 12.6337 4.60712 12.6337C4.35399 12.6337 4.14479 12.4456 4.11168 12.2016L4.10712 12.1337L4.10667 4.2656L2.24304 6.13869C2.06594 6.31661 1.7882 6.33339 1.59213 6.1886L1.53594 6.14032C1.35802 5.96322 1.34124 5.68548 1.48602 5.48941L1.5343 5.43321L4.25282 2.7021L4.28226 2.67511C4.28918 2.66919 4.29625 2.66346 4.30349 2.65793L4.25282 2.7021C4.27735 2.67746 4.3038 2.65591 4.3317 2.63746C4.34144 2.63139 4.35155 2.6252 4.3619 2.61937C4.37151 2.61358 4.38127 2.6085 4.39116 2.60376C4.40092 2.59944 4.41083 2.59508 4.42089 2.59104C4.43368 2.58557 4.4468 2.58094 4.46005 2.57687C4.46812 2.57471 4.47637 2.5724 4.48471 2.5703C4.49815 2.56661 4.51172 2.56379 4.52538 2.56154C4.53359 2.56051 4.54164 2.55939 4.54974 2.55846C4.56518 2.55634 4.58101 2.55527 4.59686 2.55494C4.60036 2.55524 4.60373 2.55521 4.60712 2.55521Z" fill="#30CBFF"/>
</svg>

<svg width="16" height="17" fill="none" xmlns="http://www.w3.org/2000/svg"><path d="M11.226 4.364a.5.5 0 0 1 .495.432l.005.068v7.867l1.864-1.872a.5.5 0 0 1 .757.65l-.048.056-2.719 2.73a.533.533 0 0 1-.05.045l.05-.044a.504.504 0 0 1-.138.098l-.03.013a.39.39 0 0 1-.039.014l-.024.007a.436.436 0 0 1-.043.009l-.021.002a.428.428 0 0 1-.05.004h-.019a.496.496 0 0 1-.048-.003l.058.003a.501.501 0 0 1-.123-.015l-.023-.007a.397.397 0 0 1-.043-.015l-.022-.01a.345.345 0 0 1-.034-.017l-.03-.019a.304.304 0 0 1-.023-.015l-.006-.005a.492.492 0 0 1-.05-.044l-2.719-2.731a.5.5 0 0 1 .653-.754l.056.048 1.864 1.873V4.864a.5.5 0 0 1 .5-.5zM4.607 2.555h.01a.5.5 0 0 1 .049.003l-.059-.003a.504.504 0 0 1 .123.015l.025.007a.383.383 0 0 1 .038.014l.028.012a.34.34 0 0 1 .032.016l.026.016a.313.313 0 0 1 .026.018l.057.05 2.718 2.73a.5.5 0 0 1-.653.754l-.056-.048-1.864-1.874v7.869a.5.5 0 0 1-.995.068l-.005-.068V4.266L2.243 6.139a.5.5 0 0 1-.65.05l-.057-.049a.5.5 0 0 1-.05-.65l.048-.057 2.719-2.73.03-.028a.493.493 0 0 1 .02-.017l-.05.044a.502.502 0 0 1 .207-.125l.025-.007a.397.397 0 0 1 .04-.008l.025-.004a.41.41 0 0 1 .047-.003h.01z" fill="#30CBFF"/></svg>
